X: 1
T: Dublin Airport Waltz
C: Gerard Fahy
R: waltz
Z: 2012 John Chambers <jc:trillian.mit.edu>
M: 3/4
L: 1/8
K: D
FE |:\
"Bm"DF AF (3ABd | "A"e3 A de |\
"D"f3 g/f/ ed | "G"B3 c dB |\
"D".A2 .d2 .A2 |
[1 "D/C#"B2 {cB}A2 F2 | "Em"G2 d2 c2 | "A"A6 :|\
[2 "A"G2 F2 E2 | "G"D3 EFE | "D"D3 Adf |]
[| "Em"g2 g2 gf | "A"e3 A de | "Bm"f3 g/f/ ed |\
"G"B3 c dB | "A".A2 .d2 .A2 |\
"D/C#"B2 {cB}A2 F2 | "Em"G2 d2 c2 | "A"A4 FE |
"Bm"DF AF (3ABd | "A"e3 A de | "D"f3 g/f/ ed | "G"B3 c dB |\
"D".A2 .d2 .A2 | "A"G2 F2 E2 | "G"D3 E FE | "D"D4 |]
